X: 360
T: Riben guizi de dapao
%%abc-version 2.0
%%abcx-abcm2ps-target-version 5.9.1 (29 Sep 2008)
%%abc-creator hum2abc beta
%%abcx-conversion-date 2013/10/02 07:52:30
%%abc-edited-by Helmut Schaffrath
%%humdrum-veritas 417579189
%%humdrum-veritas-data 4043443007
%%continueall 1
%%barnumbers 0
L: 1/8
M: 2/4
K: G
A2d2 [I:setbarnb 1]| 
A B A G | 
A G F E | 
D> D D E | 
D4 | 
G2G A | 
d2e d | 
c BA2 | 
G Ed2 | 
G2G A | 
d2A B | 
A G F E | 
D2D E | 
GA2E | 
D4 |]  



